app/dist/common/images/ardmore-shipping.svg

<svg height="18" viewBox="0 0 18 18" width="18" xmlns="http://www.w3.org/2000/svg"><path d="m0 0h18v18h-18z" fill="#0069a9"/><path d="m8.17 4h1.66l2.03 5h1.14v2h-2.09l-.37-1h-3.08l-.37 1h-2.09v-2h1.14zm.02 4h1.62l-.81-2.19-.8 2.19zm-3.19 5.77v-1.45c.3.1 1.13.29 2.07.29 1.19 0 2.37-.61 3.82-.61 1.15 0 1.89.21 2.11.32v1.45a5.8 5.8 0 0 0 -2.11-.35c-1.33 0-2.52.58-3.82.58a8.26 8.26 0 0 1 -2.07-.23z" fill="#f0f3fa"/></svg>

<!-- by TradingView --><svg width="18" height="18" viewBox="0 0 18 18" xmlns="http://www.w3.org/2000/svg"><path fill="#0069A9" d="M0 0h18v18H0z"/><path d="M8.17 4h1.66l2.03 5H13v2h-2.09l-.37-1H7.46l-.37 1H5V9h1.14l2.03-5Zm.02 4h1.62L9 5.81 8.2 8ZM5 13.77v-1.45c.3.1 1.13.29 2.07.29 1.19 0 2.37-.61 3.82-.61 1.15 0 1.89.21 2.11.32v1.45a5.8 5.8 0 0 0-2.11-.35c-1.33 0-2.52.58-3.82.58A8.26 8.26 0 0 1 5 13.77Z" fill="#F0F3FA"/></svg>
